public/images/lyx-token.svg

<svg fill="none" height="80" viewBox="0 0 80 80" width="80" xmlns="http://www.w3.org/2000/svg" xmlns:xlink="http://www.w3.org/1999/xlink"><clipPath id="a"><path d="m18 16h43.7086v48h-43.7086z"/></clipPath><rect fill="#fff" height="80" rx="40" width="80"/><g clip-path="url(#a)"><path d="m57.6957 25.1071-13.8676-8.0026c-2.4556-1.4225-5.4914-1.4225-7.947 0l-13.8676 8.0026c-2.4556 1.4226-3.9735 4.0451-3.9735 6.8822v16.0132c0 2.8371 1.5179 5.4596 3.9735 6.8821l13.8676 8.0106c2.4556 1.4225 5.4914 1.4225 7.947 0l13.8676-8.0106c2.4556-1.4225 3.9735-4.045 3.9735-6.8821v-16.0132c0-2.8371-1.51-5.4596-3.9735-6.8822zm-6.8345 16.4822-4.1245 7.1443c-.5642.9855-1.6132 1.5894-2.7496 1.5894h-8.257c-1.1364 0-2.1854-.6039-2.7497-1.5894l-4.1324-7.1443c-.5643-.9855-.5643-2.1934 0-3.1789l4.1245-7.1443c.5642-.9855 1.6132-1.5894 2.7497-1.5894h8.249c1.1364 0 2.1854.6039 2.7496 1.5894l4.1245 7.1443c.5802.9855.5802 2.1934.0159 3.1789z" fill="#fe005b"/><path d="m50.8612 41.5893-4.1245 7.1444c-.5642.9854-1.6132 1.5894-2.7496 1.5894h-8.257c-1.1364 0-2.1854-.604-2.7497-1.5894l-4.1324-7.1444c-.5643-.9854-.5643-2.1933 0-3.1788l4.1245-7.1443c.5642-.9855 1.6132-1.5894 2.7497-1.5894h8.249c1.1364 0 2.1854.6039 2.7496 1.5894l4.1245 7.1443c.5802.9855.5802 2.1934.0159 3.1788z" fill="#fff1f8"/></g></svg>

<svg width="80" height="80" viewBox="0 0 80 80" fill="none" xmlns="http://www.w3.org/2000/svg">
<rect width="80" height="80" rx="40" fill="white"/>
<g clip-path="url(#clip0_907_17477)">
<path d="M57.6957 25.1071L43.8281 17.1045C41.3725 15.682 38.3367 15.682 35.8811 17.1045L22.0135 25.1071C19.5579 26.5297 18.04 29.1522 18.04 31.9893V48.0025C18.04 50.8396 19.5579 53.4621 22.0135 54.8846L35.8811 62.8952C38.3367 64.3177 41.3725 64.3177 43.8281 62.8952L57.6957 54.8846C60.1513 53.4621 61.6692 50.8396 61.6692 48.0025V31.9893C61.6692 29.1522 60.1592 26.5297 57.6957 25.1071ZM50.8612 41.5893L46.7367 48.7336C46.1725 49.7191 45.1235 50.323 43.9871 50.323H35.7301C34.5937 50.323 33.5447 49.7191 32.9804 48.7336L28.848 41.5893C28.2837 40.6038 28.2837 39.3959 28.848 38.4104L32.9725 31.2661C33.5367 30.2806 34.5857 29.6767 35.7222 29.6767H43.9712C45.1076 29.6767 46.1566 30.2806 46.7208 31.2661L50.8453 38.4104C51.4255 39.3959 51.4255 40.6038 50.8612 41.5893Z" fill="#FE005B"/>
<path d="M50.8612 41.5893L46.7367 48.7337C46.1725 49.7191 45.1235 50.3231 43.9871 50.3231H35.7301C34.5937 50.3231 33.5447 49.7191 32.9804 48.7337L28.848 41.5893C28.2837 40.6039 28.2837 39.396 28.848 38.4105L32.9725 31.2662C33.5367 30.2807 34.5857 29.6768 35.7222 29.6768H43.9712C45.1076 29.6768 46.1566 30.2807 46.7208 31.2662L50.8453 38.4105C51.4255 39.396 51.4255 40.6039 50.8612 41.5893Z" fill="#FFF1F8"/>
</g>
<defs>
<clipPath id="clip0_907_17477">
<rect width="43.7086" height="48" fill="white" transform="translate(18 16)"/>
</clipPath>
</defs>
</svg>
